icons/bed-two-color.svg

<?xml version="1.0" encoding="UTF-8"?><svg xmlns="http://www.w3.org/2000/svg" viewBox="0 0 50 50"><g id="uuid-8f5a18b3-84d0-4a60-948e-07e0926e58cf"><path d="M45.31,26.15H7.43c-2.23,0-4.05,1.82-4.05,4.05v11.61h4.67v-3.96H44.24v3.96h5.12v-11.61c0-2.23-1.82-4.05-4.05-4.05Z" fill="#ffcd00"/><path d="M10.82,21.55h-.36v.41c0,.28,.22,.5,.5,.5h11.92c.28,0,.5-.22,.5-.5v-.4H10.82Z" fill="none"/><path d="M26.01,21.96c0,.28,.22,.5,.5,.5h11.92c.28,0,.5-.22,.5-.5v-.4h-12.92v.4Z" fill="none"/><path d="M10.46,21.55h12.92v-.82h2.63v.82h12.92v-.76h2.58l.35,.76h1.18l-.02-5.81h0c0-2.23-1.82-4.05-4.05-4.05H13.73c-2.23,0-4.05,1.82-4.05,4.05v5.06h.77v.75Zm16.55-1.31v-5.01h10.92v6.23h-10.92v-1.22Zm-15.55-5.01h10.92v6.23H11.46v-6.23Z" fill="#ffcd00"/><path d="M48.6,36.36v-3.68s0-.02,0-.03,0-.02,0-.03v-4.17c0-2.69-2.12-4.87-4.77-5.02l-1.54-3.33-.03-6.11c0-2.78-2.26-5.05-5.05-5.05H11.98c-2.78,0-5.05,2.26-5.05,5.05v6.24l-1.78,3.22c-2.53,.27-4.52,2.39-4.52,4.99v12.11c0,.28,.22,.5,.5,.5H6.81c.13,0,.26-.05,.35-.15s.15-.22,.15-.35v-3.46H41.49v3.46c0,.28,.22,.5,.5,.5h6.12c.28,0,.5-.22,.5-.5v-3.82c.02-.06,.04-.12,.04-.19,0-.06-.01-.13-.04-.18ZM7.76,20.81h2.7v1.15c0,.28,.22,.5,.5,.5h11.92c.28,0,.5-.22,.5-.5v-1.23h2.63v1.23c0,.28,.22,.5,.5,.5h11.92c.28,0,.5-.22,.5-.5v-1.16h2.58l1.21,2.6H6.32l1.44-2.59Zm14.62-.58v1.23H11.46v-6.23h10.92v5Zm4.63,.01v-5.01h10.92v6.23h-10.92v-1.22ZM7.93,13.99c0-2.23,1.82-4.05,4.05-4.05h25.24c2.23,0,4.05,1.82,4.05,4.05h0l.02,5.8h-2.32l-.03-5.07s-.01-.06-.02-.09c0-.03,0-.07-.02-.1,0-.02-.02-.03-.03-.04-.02-.04-.05-.08-.08-.12,0,0-.02,0-.02-.01-.04-.04-.09-.07-.14-.09-.06-.03-.13-.04-.19-.04h-11.92c-.28,0-.5,.22-.5,.5v5.01h-2.63v-5.01c0-.28-.22-.5-.5-.5H10.96c-.07,0-.13,.01-.19,.04-.03,.01-.05,.03-.07,.05-.03,.02-.06,.03-.08,.06-.02,.02-.04,.05-.05,.08-.02,.03-.04,.05-.05,.08-.01,.03-.01,.06-.02,.09,0,.03-.02,.07-.02,.1l-.07,5.07h-2.46v-5.81Zm-2.25,10.41H43.56c2.23,0,4.05,1.82,4.05,4.05v3.7l-45.97-.07v-3.62c0-2.23,1.82-4.05,4.05-4.05ZM1.63,40.06v-2.96H6.3v2.96H1.63Zm45.97,0h-5.12v-2.96l5.12-.05v3.01Zm-5.62-3.96H1.63v-3.03l45.97,.07v2.91l-5.62,.05Z"/></g><g id="uuid-16c166e1-d014-4c2a-87ef-59ffa1bc3d27"><text transform="translate(.3 54.89)" font-family="Roboto-Regular, Roboto" font-size="6"><tspan x="0" y="0">bed</tspan></text></g></svg>

<svg xmlns="http://www.w3.org/2000/svg" viewBox="0 0 50 50"><g id="e2f8ab6d-4689-4f9f-9327-498465947848" data-name="ICONS"><path d="M45.31,26.15H7.43a4.06,4.06,0,0,0-4,4.05V41.81H8.06v-4H44.24v4h5.11V30.2A4.05,4.05,0,0,0,45.31,26.15Z" fill="#fdd600"/><path d="M10.82,21.55h-.36V22a.5.5,0,0,0,.5.5H22.88a.5.5,0,0,0,.5-.5v-.4H10.82Z" fill="none"/><path d="M26,22a.5.5,0,0,0,.5.5H38.43a.5.5,0,0,0,.5-.5v-.4H26Z" fill="none"/><path d="M10.46,21.55H23.38v-.83H26v.82H38.93V20.8h2.58l.35.77H43l0-5.8h0a4.05,4.05,0,0,0-4-4.05H13.73a4.06,4.06,0,0,0-4.05,4.05V20.8h.78ZM27,20.24v-5H37.93v6.23H27Zm-15.55-5H22.38v6.23H11.46Z" fill="#fdd600"/><path d="M48.6,36.36V32.68s0,0,0,0V28.45a5,5,0,0,0-4.77-5L42.29,20.1l0-6.11a5.05,5.05,0,0,0-5-5.05H12A5.06,5.06,0,0,0,6.93,14v6.24L5.15,23.45a5,5,0,0,0-4.52,5V40.56a.51.51,0,0,0,.5.5H6.81a.51.51,0,0,0,.35-.15.49.49,0,0,0,.15-.36V37.1H41.49v3.46a.5.5,0,0,0,.5.5H48.1a.5.5,0,0,0,.5-.5V36.73a.41.41,0,0,0,0-.19A.34.34,0,0,0,48.6,36.36ZM7.76,20.81h2.7V22a.5.5,0,0,0,.5.5H22.88a.5.5,0,0,0,.5-.5V20.73H26V22a.5.5,0,0,0,.5.5H38.43a.5.5,0,0,0,.5-.5V20.8h2.58l1.21,2.61H6.32Zm14.62-.58v1.23H11.46V15.23H22.38Zm4.63,0v-5H37.93v6.23H27ZM7.93,14A4.06,4.06,0,0,1,12,9.94H37.22a4.05,4.05,0,0,1,4,4.05h0l0,5.8H39l0-5.07s0-.06,0-.09a.45.45,0,0,0,0-.11s0,0,0,0a1,1,0,0,0-.08-.11l0,0a1.1,1.1,0,0,0-.14-.09.45.45,0,0,0-.2,0H26.51a.5.5,0,0,0-.5.5v5H23.38v-5a.5.5,0,0,0-.5-.5H11a.45.45,0,0,0-.2,0l-.07.05a.24.24,0,0,0-.08.06s0,0-.06.07,0,.05-.05.08,0,.06,0,.09a.36.36,0,0,0,0,.1l-.07,5.08H7.93ZM5.68,24.4H43.56a4.05,4.05,0,0,1,4,4.05v3.69l-46-.07V28.45A4.06,4.06,0,0,1,5.68,24.4Zm-4,15.66v-3H6.3v3Zm46,0H42.49v-3l5.11,0ZM42,36.1H1.63v-3l46,.07v2.91Z" fill="#231f20"/></g><g id="aed85f68-1cf4-4394-b3a1-1933cc9e80b3" data-name="LABELS"><text transform="translate(0.3 54.89)" font-size="6" fill="#231f20" font-family="Roboto-Regular, Roboto">bed</text></g></svg>
